X:1300
T: Lovely Lassie Winking
T: Sm\'eideadh na Meidhre Mais\'i
S: B.Breathnach:"Ceol Rince na hEireann" IV/167
Z: B.Black
L: 1/8
M: 4/4
R: reel
K: D
FAAc BAdA|BAdA Bd d2|FAAc BAdB|AFDF E2 D2 :|
efed BcdB|AFAB d2 cd|efed BcdB|AFDF E2 D2|
efed BcdB|AFAB d2 ef|gfed BcdB|AFDF E2 D2 ||
